X: 237
T: Art O'Keeffe's
T:The Newmarket
R:Polka
M:4/4
L:1/8
K:A
"A"e2c2|"(E)"BE "A"A>c|"(E)"BE "A"AB|"E"cB Bc|
"A"e2c2|"(E)"BE "A"A>c|"E"BE AB|"A"cA A2:|
"A"ce a>a|"(Bm7)"gf f>e|"A"ce "E"fg|fe cB|
"A"ce a>a|"(Bm7)"gf f>e|"A"ce "E"fg|"A"ba a2:|


